X: 61
T:Les Herbes folles
M:4/4
L:1/4
C:Patrick Bouffard
R:Schottische
Z:Steve Mansfield
K:G
BGGA/B/ | cAAB/c/ | d>edA | BG G/F/G/A/ | BGGA/B/ | cAAB/c/ |
d>edF |1 G3A :|2 G4 |: cAcA | BGBG | AA/G/ F/G/A/B/ |
GG/F/ GA/B/ | cAc>d | d/c/c/A/2 B2 | cc/B/ A/B/c/d/ | G4 :|
<end>
<start>
